X:3237
L:1/16
Q:1/4=120
M:2/4
K:Bb
"^A" F2 | .B2(Bd) f2f2 | .e2(ec) A2A2 | .B2(Bd) .f2(fb) | a2f2 e2c2 | .B2(Bd) f2f2 | .g2(ge) c2c2 | 
 .e2(ec) ABcA | B4 z2 :|"^B" F2 | .e2(ec) A2FE | D2B2 F2d2 | .B2(Bd) f2b2 | a2fg a2f2 | e2c2 A2E2 | 
 D2B2 F2d2 | c2cB ABcA | B4 z2 :|[K:Gmin]"^C" G2 | (de)(de) (de)cA | BcdB G2g2 | ^f2f2 f2g2 | 
 ^f2f2 f2G2 | (de)(de) (de)cA | (BcdB) GABG | ABcA ^FGAF | G4 z2 :|

